!!!COM:	Bach, Johann Sebastian
!!!CDT:	1685/02/21/-1750/07/28/
!!!OTL@@DE:	Jesus Christus, unser Heiland
!!!SCT:	BWV 363
!!!PC#:	30
!!!AGN:	chorale
**kern	**kern	**kern	**kern
*ICvox	*ICvox	*ICvox	*ICvox
*Ibass	*Itenor	*Ialto	*Isoprn
*I"Bass	*I"Tenor	*I"Alto	*I"Soprano
*	*oclefC4	*oclefC3	*oclefC1
*clefF4	*clefGv2	*clefG2	*clefG2
*k[f#]	*k[f#]	*k[f#]	*k[f#]
*e:	*e:	*e:	*e:
*M4/4	*M4/4	*M4/4	*M4/4
*met(c)	*met(c)	*met(c)	*met(c)
*MM100	*MM100	*MM100	*MM100
=1-	=1-	=1-	=1-
4.E	4G	4B	4e
.	4F#	4B	4b
8D	.	.	.
2C	4G	8eL	4b
.	.	8d#J	.
.	8F#L	4e	4a
.	8EJ	.	.
=2	=2	=2	=2
8BBL	4F#	4d#	4b
8AJ	.	.	.
8GL	8BL	8eL	8eL
8F#J	8AJ	8d#J	8f#J
8EL	4B	4e	4g
8DJ	.	.	.
8CL	8eL	4e	4g
8BBJ	8d#J	.	.
=3	=3	=3	=3
4AA#	4c#	4.e	4g
4BB	8F#L	.	4f#
.	16BL	8d#	.
.	16AJJ	.	.
2EE;	2G;	2B;	2e;
=4	=4	=4	=4
8EL	4B	4e	4g
8DJ	.	.	.
4CnX	4cnX	4e	4g
4BB	4G	4dnX	4g
[4C	4G	4c	4e
=5	=5	=5	=5
8CL]	8GL	4d	4g
8BBJ	16AL	.	.
.	16BJJ	.	.
4AA	4c	8eL	4a
.	.	8f#J	.
4GG	8dL	4.g	4b
.	16eL	.	.
.	16dJJ	.	.
4AA	16cLL	.	4a
.	16BJ	.	.
.	8cJ	[8f#	.
=6	=6	=6	=6
2BB	4B	8f#]	4g
.	.	4e	.
.	8.BL	.	4f#
.	.	8d#	.
.	16AJk	.	.
2E;	2G;	2B;	2e;
=7	=7	=7	=7
4E	8BL	4e	4g
.	8cJ	.	.
4BB	4dnX	8gL	4g
.	.	8f#J	.
8CL	4c	4e	4g
8DJ	.	.	.
8EL	4G	4c	4e
8DJ	.	.	.
=8	=8	=8	=8
8CL	4G	8eL	4g
8BBJ	.	8dJ	.
4AA	4c	8eL	4a
.	.	8f#J	.
4GG	4d	4.g	4b
4D	8.dL	.	4a
.	.	8f#	.
.	16cJk	.	.
=9	=9	=9	=9
2GG;	2B;	2d;	2g;
4r	4ry	4ryy	4r
4BB	4d	8gL	4dd
.	.	8fJ	.
=10	=10	=10	=10
4C	8cL	4e	4ee
.	8BJ	.	.
4D	4A	4f#X	8ddL
.	.	.	8ccJ
4.E	8GL	8gL	8bL
.	8cJ	8d#J	8aJ
.	8BL	8eL	8gL
8F#	8AJ	[8dJ	8aJ
=11	=11	=11	=11
8GL	8GL	8dL]	4b
8BBJ	8dJ	[8gJ	.
8C#L	8eL	8gL]	4a
8D#J	8BJ	[8f#J	.
8EL	4B	8f#L]	4g
8GGJ	.	[8eJ	.
8AAL	8cL	8eL]	4f#
8BBJ	16BL	8d#J	.
.	16AJJ	.	.
=12	=12	=12	=12
2.EE;	2.G#;	2.B;	2.e;
4r	4ry	4ry	4r
==	==	==	==
*-	*-	*-	*-
!!!YOR1: 371 vierstimmige Choralges&auml;nge von Johann Sebastian Bach, 
!!!YOR2: 4th ed. by Alfred D&ouml;rffel (Leipzig: Breitkopf und H&auml;rtel, 
!!!YOR2: c.1875). 178 pp. Plate "V.A.10".  reprint: J.S. Bach, 371 Four-Part 
!!!YOR4: Chorales (New York: Associated Music Publishers, Inc., c.1940).
!!!SMS: B&H, 4th ed, Alfred D&ouml;rffel, c.1875, plate V.A.10
!!!EED:  Craig Stuart Sapp
!!!EEV:  2009/05/22
